Adwaita++/actions/symbolic/xapp-go-history-previous-symbolic.svg

<svg height="16" width="16" xmlns="http://www.w3.org/2000/svg">
  <path d="m2 13.5a1.5 1.5 0 0 0 1.5 1.5 1.5 1.5 0 0 0 1.5-1.5 1.5 1.5 0 0 0 -1.5-1.5 1.5 1.5 0 0 0 -1.5 1.5zm0-7.5 7 5v-3h4v-4h-4v-3zm4 7.5a1.5 1.5 0 0 0 1.5 1.5 1.5 1.5 0 0 0 1.5-1.5 1.5 1.5 0 0 0 -1.5-1.5 1.5 1.5 0 0 0 -1.5 1.5zm4 0a1.5 1.5 0 0 0 1.5 1.5 1.5 1.5 0 0 0 1.5-1.5 1.5 1.5 0 0 0 -1.5-1.5 1.5 1.5 0 0 0 -1.5 1.5z" fill="#474747"/>
</svg>

<svg xmlns="http://www.w3.org/2000/svg" width="16" height="16" version="1.1">
 <path style="fill:#474747" d="M 2,13.5 A 1.5,1.5 0 0 0 3.5,15 1.5,1.5 0 0 0 5,13.5 1.5,1.5 0 0 0 3.5,12 1.5,1.5 0 0 0 2,13.5 Z M 2,6 9,11 V 8 h 4 V 4 H 9 V 1 Z m 4,7.5 A 1.5,1.5 0 0 0 7.5,15 1.5,1.5 0 0 0 9,13.5 1.5,1.5 0 0 0 7.5,12 1.5,1.5 0 0 0 6,13.5 Z m 4,0 A 1.5,1.5 0 0 0 11.5,15 1.5,1.5 0 0 0 13,13.5 1.5,1.5 0 0 0 11.5,12 1.5,1.5 0 0 0 10,13.5 Z"/>
</svg>
